X: 138025
T: Unnamed JIG
Q: "Irish Jig."
R: Jig.
%R: jig
B: James Kerr "Merry Melodies" v.1 p.38 s.0 #25
Z: 2016 John Chambers <jc:trillian.mit.edu>
M: 6/8
L: 1/8
K: A
|:\
ABA AGA | cBA cde | ABA AGA | FBA GFE |\
ABA AGA | cBA cde | fga edc | BcA GFE :|
|:\
cde efe | efe edc | def fgf | fgf fed |\
cde efe | efe efg | agf edc | BcA GFE :|

%%sep 1 1 500
%%sep 1 1 500

